X: 100178
M: C|
L: 1/8
K: Em
u(B/^d/) |\
(.e>.f) ({ef}g>f) e(E "^>"E>F) | {AGF}G>F G<B F3 f |\
(g>e)(f>^d) e.dB>=d | A>G F<B [E2B,2] :|
uF |\
(.G>.A)(B>^c) (.d>.=c)(Bc) | (B>{cB}A) (G>A) [B3F3] f |\
(g>e)(f>^d) e>d B<=d | A>G F<B [E3B,3] |]
(.G>.A)(B>^c) (.d>.=c)(Bc) | (B>{cB}A) (G>A) B3 A |\
(.B>.b) (g>f) e^dB=d | A>G "^Segue Reel."F<B [E3B,3] "^D.C."|]


